X:1
T:Title
%%score 1 { 2 | 3 }
L:1/8
Q:1/4=110
M:6/4
K:C
V:1 treble nm="Grand Piano, Soprano"
V:2 bass nm="Choir Pad, I Thought of You, Mother"
V:3 bass 
V:1
 CD [CE]3 [CE] [CE]2 [CF] [CE]3 | [G,C]2 [A,C]3 [A,C] [B,D]2 [CE]4 | %2
w: By~George~W.~Bacon * * * * * *||
 [EG]2 [EG]3 [_E^F] [=EG]2 [=FA] [EG]3 | [Ec]2 [Fc]3 [FB] [FA]2 [Gd]4 | %4
w: ||
 G2 [Ge]2 [Gd]2 [Gc]2 [Fc] [FA]3 | [Fc]2 [DG]3 [EG] [FG]2 [EG]4 | %6
w: ||
 [CG]2 [CE]2 [EG]2 [Gc]2 [^FA] [Fd]3 | [^Fc]2 [GB]2 [Gc]2 [Gd]2 [Gc]4 | %8
w: ||
 [EG]2 [EG]3 [EG] [EG]2 [EG] [EG]3 | [EG]2 [Ec]3 [Ec] [Ec]2 [Gd] [Gd]3 | %10
w: ||
 G2 [Ge]2 [Gd]2 [Gc]2 [Fc] [FA]3 | [Fc]2 [DG]2 [EG]2 [FG]2 [EG]4 | %12
w: ||
 [Ec]2 [Ec]3 [EA] [Ec]2 [Ge] [Ec]3 | [EG]2 [Gc]3 [Gd] [Ge]2 [Af] [FA]3 | %14
w: ||
 [FA]2 [DG]3 [EA] [FB]2 [Ec]2 [Ge]2 | [^Fd]2 [=Fd]2 [EA]2 [FB]2 [Ec]4- | [Ec]6 z6 |] %17
w: |||
V:2
 E,F, G,3 G, G,2 A, G,3 | E,2 E,3 E, G,2 G,4 | C2 C3 C C2 C C3 | C2 A,3 D C2[K:bass] B,4 | %4
 B,2 C2 B,2 C2 A, C3 | A,2 B,3 C D2 C4 | E,2 G,2[K:treble] C2 E2 D A,3 | D2 D2 E2 F2 E4 | %8
 C2 C3 C C2[K:bass] B, B,3 | B,2 C3 C C2 B, B,3 | B,2[K:treble] C2 B,2 C2 A, C3 | %11
 A,2 B,2 C2 D2 C4 | G,2 G,3 A, G,2 C G,3 | C2 C3 B, C2 C C3 | C2 B,3 C D2 C2 C2 | %15
 A,2 B,2 C2 D2 C4- | C6 z6 |] %17
V:3
 C,2 C,3 C, C,2 C, C,3 | C,2 A,,3 A,, G,,2 C,4 | C,2 C,3 C, C,2 C, C,3 | A,2 D,3 D, D,2 G,4 | %4
 G,2 C,2 D,2 E,2 F, F,3 | F,2 G,3 G, G,2 C,4 | C,2 C,2 C,2 C,2 D, D,3 | D,2 G,2 G,2 G,2 C,4 | %8
 C,2 C,3 C, C,2 E, E,3 | G,2 A,3 A, A,2 G, G,3 | G,2 C,2 D,2 E,2 F, F,3 | F,2 G,2 G,2 G,2 C,4 | %12
 C,2 C,3 C, C,2 C, C,3 | C,2 E,3 D, C,2 F, F,3 | F,2 G,3 G, G,2 A,2 A,2 | D,2 G,2 G,2 G,2 C,4- | %16
 C,6 z6 |] %17

